X:1
T:007 - Maravilhas Divinas
T:Letra: Salomão Luiz Ginsburg (1867-1927)
T:Música: George Coles Stebbins (1846-1945)
M:6/8
L:1/8
Q:1/4=115
K:Fmaj
V:1
"F"F3 C2F| A3 F2A| c3 (dc)=B| c3 A2z| "Bb"B3 c2c| d3 c2c| "G7"=B3 A2G| "C"c3z3| "F"F3 C2F| A3 F2A| c3 (dc)=B| c3 A3| "Bb"B3 c2c| d3 e2f| "F/C"A3 "C7"A2G| "F"F3z3 || "F"c3- c=Bc| d3 c3| A3- A^GA| B3 A3| "Bb/F"d3- dc=B| "F"c3 A2A| "G7"=B3- BA=B| "C"c3z3| "F"c3- c=Bc| d3 c3| A3- A_A=A| B3 A3| "Bb/F"d3- dc=B| "F"c3 F2_B| "F/C"A3 "C7"A2G| "F"F3z3|]
w: 1.~Ao Deus dea-mor e dei-men-sa_ bon-da-de, Com voz de jú-bi-lo vin-deea-cla-mai; Com co-ra-ção trans-bor-dan-te_ de gra-ças, Seu gran-dea-mor, to-dos, vin-dee lou-vai.     No_ céu, na ter-ra, que_ ma-ra-vi-lhas Vai_ o-pe-ran-doo po-der_ do Se-nhor! Mas_ seu a-mor aos ho_mens per-di-dos Das_ ma-ra-vi-lhas és sem-prea mai-or!  
w: 2.~Já nos-sos pais nos con-ta-ram_ a gló-ria De Deus, fa-lan-do com mui-to pra-zer, Que nas tris-te-zas, nos gran-des_ pe-ri-gos, E-leos sal-vou por seu gran-de po-der.  
w: 3.~Ho-je, tam-bém nós bem al-to_ can-ta-mos Queas o-ra-ções E-le nos a-ten-deu; Seu for-te bra-ço, queé tão com_pas-si-vo, Em nos-soau-xí-lio,E-le sem-prees-ten-deu.  
w: 4.~Co-moa-té ho-jee da-qui pa_ra sem-pre, E-le se-rá nos-soe-ter-no po-der, Nos-so cas-te-lo bem for-tee_ se-gu-ro, Ea nos-sa fon-te deex-cel-so pra-zer.          
W: 
W: 
W: 1. Ao Deus de amor e de imensa bondade,
W: Com voz de júbilo vinde e aclamai;
W: Com coração transbordante de graças,
W: Seu grande amor, todos, vinde e louvai.
W: 
W:    (Estribilho)
W:    No céu, na terra, que maravilhas
W:    Vai operando o poder do Senhor!    
W:    Mas seu amor aos homens perdidos      
W:    Das maravilhas és sempre a maior!
W: 
W: 2. Já nossos pais nos contaram a glória
W: De Deus, falando com muito prazer,
W: Que nas tristezas, nos grandes perigos,
W: Ele os salvou por seu grande poder.
W: 
W: 
W: 
W: 3. Hoje, também nós bem alto cantamos
W: Que as orações Ele nos atendeu;
W: Seu forte braço, que é tão compassivo,
W: Em nosso auxílio, Ele sempre estendeu.
W: 
W: 4. Como até hoje e daqui para sempre,
W: Ele será nosso eterno poder,
W: Nosso castelo bem forte e seguro,
W: E a nossa fonte de excelso prazer.
W:         
W: 				         
W:           





